X:1
T:18. PSALMUS SUB COMMUNIONE
T:18. PSALMUS SUB COMMUNIONE.
T:Jesus Christus, unser Heiland.
T:Samuel Scheidt (1587 - 1654)
T:from Tabulatura nova. 1624 Dritter Theil SSWV 156
C:Samuel Scheidt (1587 - 1654)
Z:from Tabulatura nova. 1624 Dritter Theil SSWV 156
%%score 1 { ( 2 3 ) | ( 4 5 ) }
L:1/8
Q:1/4=112
M:4/2
K:C
V:1 treble nm="Stimme" snm="St."
V:2 treble nm="Orgel"
V:3 treble 
V:4 bass 
V:5 bass 
V:1
"^1. Versus." z16 | z16 | z16 | z16 | z16 | z16 | z16 | z16 | z16 | z16 | z16 | z16 | z16 | z16 | %14
 z16 | z16 | z16 | z16 | z16 | z16 | z16 | z16 | z16 | z16 | z16 | z16 | z16 | z16 | z16 | z16 | %30
 z16 | z16 | z16 | z16 | z16 | z16 | z16 | z16 | z16 | z16 | z16 | z16 | z16 | z16 | z16 | z16 | %46
 z16 | z16 | z16 | z16 | z16 | z16 | z16 | z16 | z16 | z16 | z16 | z16 | z16 | %59
[Q:1/4=112] z16[Q:1/4=111]"^.9"[Q:1/4=111]"^.8"[Q:1/4=111]"^.5"[Q:1/4=110]"^.8"[Q:1/4=109]"^.4"[Q:1/4=107]"^.5"[Q:1/4=106]"^.3"[Q:1/4=104]"^.9"[Q:1/4=101]"^.6" | %60
[Q:1/4=97]"^.5" z16[Q:1/4=92]"^.5"[Q:1/4=89]"^.7"[Q:1/4=86]"^.6"[Q:1/4=79]"^.8"[Q:1/4=72] || %61
[M:4/2][Q:1/4=121]"^2. Versus." z16 | z16 | z16 | z16 | z16 | z16 | z16 | z16 | z16 | z16 | z16 | %72
 z16 | z16 | z16 | z16 | z16 | z16 | z16 | z16 | z16 | z16 | z16 | z16 | z16 | z16 | z16 | z16 | %88
 z16[Q:1/4=121] |[Q:1/4=120]"^.1" z16[Q:1/4=115]"^.7"[Q:1/4=111]"^.8"[Q:1/4=106]"^.5"[Q:1/4=69] || %90
[M:4/2][Q:1/4=116]"^3. Versus. Choralis in Cantu." z16 | z16 | z16 | z8 z4 D4 | A8 A8 | G8 A8 | %96
 D8 F8 | F8 F8 | E8 D8 | z8 F8 | F8 F8 | D8 F8 | G8 A8 | G8 F8 | E8 D8 | z8 F8 | F8 F8 | D8 F8 | %108
 G8 A8 | G8 F8 | z8 c8 | d8 c8 | A8 F8 | G8 A8 | G8 F8 | %115
 E8[Q:1/4=116] D8-[Q:1/4=115]"^.9"[Q:1/4=115]"^.6"[Q:1/4=115] | %116
[Q:1/4=113]"^.9" D16-[Q:1/4=112]"^.3"[Q:1/4=110]"^.2"[Q:1/4=104][Q:1/4=95]"^.1"[Q:1/4=89]"^.5" | %117
[Q:1/4=83] D16 ||[M:4/2][K:alto][Q:1/4=112]"^4. Versus. Choralis in Alto." z16 | z16 | A,8 E8 | %121
 E4 D4 E8 | A,8 C4 C4 | C8 B,8 | A,8 z8 | C4 C4 C4 A,4 | C4 D4 E4 D4 | C4 B,4 A,8 | z8 C4 C4 | %129
 C4 A,4 C4 D4 | E8 D8 | C8 z8 | G8 A4 G4 | E8 C8 | D4 E8 D4 | %135
 C8[Q:1/4=112] B,8[Q:1/4=111]"^.9"[Q:1/4=111]"^.8"[Q:1/4=111]"^.5"[Q:1/4=110]"^.8" | %136
[Q:1/4=109]"^.4" A,16-[Q:1/4=107]"^.5"[Q:1/4=104]"^.9"[Q:1/4=101]"^.6"[Q:1/4=97]"^.5"[Q:1/4=92]"^.5"[Q:1/4=86]"^.6"[Q:1/4=79]"^.8" | %137
[Q:1/4=72] A,16 ||[M:4/2][K:tenor][Q:1/4=108]"^5. Versus. Choralis in Tenore." D,8 A,8 | A,8 G,8 | %140
 A,8 D,8 | F,8 F,8 | F,8 E,8 | D,8 z8 | F,8 F,8 | F,8 D,8 | F,8 G,8 | A,8 G,8 | F,8 E,8 | D,8 z8 | %150
 F,8 F,8 | F,8 D,8 | F,8 G,8 | A,8 G,8 | F,8 z8 | C8 D8 | C8 A,8 | F,8 G,8 | A,8 G,8 | F,8 E,8 | %160
[Q:1/4=108] D,16-[Q:1/4=107]"^.8"[Q:1/4=107]"^.3"[Q:1/4=106]"^.6"[Q:1/4=105]"^.5"[Q:1/4=104]"^.1"[Q:1/4=102]"^.3" | %161
[Q:1/4=100] D,16[Q:1/4=97]"^.3"[Q:1/4=94]"^.1"[Q:1/4=90]"^.3"[Q:1/4=86] || %162
[M:4/2][K:bass][Q:1/4=100]"^6. Versus. Choralis in Basso." z16 | z16 | z16 | z16 | z16 | z16 | %168
 A,,8 E,8 | E,4 D,4 E,8 | A,,8 C,4 C,4 | C,8 B,,8 | A,,8 z8 | z16 | z16 | z16 | C,4 C,4 C,4 A,,4 | %177
 C,4 D,4 E,4 D,4 | C,4 B,,4 A,,8 | z16 | z16 | z16 | C,4 C,4 C,4 A,,4 | C,4 D,4 E,8 | D,8 C,8 | %185
 z16 | z16 | z16 | z16 | z8 G,8 | A,4 G,4 E,8 | C,8 D,4 E,4- | E,4 D,4 C,8 | B,,8 A,,8 | %194
 z4 C,4 D,8 | C,8 A,,8 | F,,8 G,,8 | A,,8 G,,8 | F,,8 E,,8 | %199
 D,,16-[Q:1/4=100][Q:1/4=98]"^.4"[Q:1/4=91]"^.2"[Q:1/4=75]"^.6" |[Q:1/4=50] D,,16 |] %201
V:2
 D8 A8 | A4 G4 A4 D4 | F4 F4 F4 E4 | D2 E2 F2 G2 A6 G2 | F2 G2 A2 GF E2 D2 E2 F2 | G2 A4 G4 FE F4 | %6
 E4 e2 d2 c2 A2 BAGF | E4 F3 G A8 | A16 | z16 | z16 | z8 z4 A4 | d8 d4 ^c4 | d4 A4 =c4 c4 | %14
 c4 B4 A2 F2 E4 | D4 z2 D2 A8 | A2 G2 A2 D2 F2 F2 F4 | E4 D4 z8 | z16 | z4 D4 A8 | A4 ^G4 A4 D4 | %21
 F4 F4 F8 | E8 D8- | D8 z8 | F2 F2 F2 D2 F4 G4 | A4 G4 F4 E4 | D2 E2 F4 E8 | z16 | z16 | %29
 z8 c2 c2 c2 A2 | c4 d4 e4 d4 | c4 B4 A8 | z16 | z4 A6 G2 F2 E2 | D4 z4 z4 A2 G2 | %35
 F2 E4 D4 ^C2 D4 | F2 F2 F2 D2 F4 G4 | A4 G4 F8 | z16 | z2 A4 F2 A4 _B4 | c4 _B4 A2 c2 d2 c2 | %41
 A8 z2 c2 d2 c2 | A3 c d2 c2 A8 | z2 A2 _B2 A2 F8 | z2 A2 _B2 A2 F3 A B2 A2 | F8 z2 F2 A2 G2 | %46
 E8 z2 G2 A2 G2 | E3 G A2 G2 E8 | z4 z2 c2 d2 c2 A2 F2 | z2 G2 A2 G2 F4 E4 | D4 z4 z8 | z16 | z16 | %53
 z16 | z2 G2 ^F2 G2 A4 G4 | ^F4 z2 d2 e4 d4- | d2 c4 B4 A4 ^G2 | A4 z2 G2 A4 G4- | %58
 G2 F4 E4 D4 ^C2 | D16- | D16 ||[M:4/2][I:staff +1] A,8 D4 D2 ^C2 | %62
 D4 A,4[I:staff -1] z2[I:staff +1] CC C2 B,2 | A,2[I:staff -1] FF F2 E2 D4 z2[I:staff +1] CC | %64
 C2 B,2 A,2 DD D2 C2 B,2[I:staff -1] EE | E2 D2 C2 FF F2 E2 D4 | %66
 z2[I:staff +1] CC C2 B,2 A,4[I:staff -1] z2[I:staff +1] G,G, | G,2 F,2 E,4 F,2 G,2 A,4- | %68
 A,2 B,2 C8 G,2 G,2 | G,2 F,2 E,4 D,2 F,F, F,2 D,2 | F,2 G,2 A,8[I:staff -1] z2[I:staff +1] G,2 | %71
 F,4 E,4 D,2 G,4 F,2 | E,2 A,4 ^G,2 A,2 CC C2 A,2 |[I:staff -1] C2 D2 E8 z2 D2 | %74
 C4[I:staff +1] B,4 A,8 |[I:staff -1] z2 DD D2 B,2 C2 F4 E2- | E2 D4 ^C2 D4 z2 DD | %77
 D2 _B,2 C2 F4 E2 F2[I:staff +1] F,F, | F,2 D,2 F,2 G,2 A,4 G,4 | %79
 F,2 C2 D2 C2 A,4[I:staff -1] z2[I:staff +1] A,2 | %80
 _B,2 A,2 F,4[I:staff -1] z2[I:staff +1] F,2 A,2 G,2 | %81
 E,4[I:staff -1] z2[I:staff +1] G,2 A,2 G,2 E,2 C2 | D2 C2 A,2 D2 E2 D2 B,4 | %83
[I:staff -1] C2 D2 E6 D4 C2- | C2[I:staff +1] B,4 A,4 ^G,2 A,4 | %85
[I:staff -1] z2[I:staff +1] C2 D2 C2 A,4 F,2 G,2 | A,6 G,4 F,4 E,2- | %87
 E,2 D,4 ^C,2 D,2 F,2 G,2 F,2 | E,2 A,2 D2 B,2 C2 A,4 D2- | D2 ^CB, C4 D8 || %90
[M:4/2][I:staff -1] z16 | z16 | z16 | z8 z4 D4 | A8 A8 | G8 A8 | D8 F8 | F8 F8 | E8 D8 | z8 F8 | %100
 F8 F8 | D8 F8 | G8 A8 | G8 F8 | E8 D8 | z8 F8 | F8 F8 | D8 F8 | G8 A8 | G8 F8 | z8 c8 | d8 c8 | %112
 A8 F8 | G8 A8 | G8 F8 | E8 D8- | D16- | D16 ||[M:4/2] z2 F2 E2 D2 C2 B,2 C2 D2 | %119
 E2 F2 G2 F2 E2 AG F2 G2 | A8 c8 | c4 B8 A4 | A8 A2 GF E2 F2 | G6 FE D4 G4 | E4 A2 G2 F2 E2 D4 | %125
 G2 F2 E8 z4 | z2 AG FGAB c6 B2- | B2 A4 G4 F2 E4 | D8 z4 A2 G2 | F4 c2 B2 A4 A2 B2 | %130
 c4 G2 A2 _B4 F2 G2 | A8 G4 c4 | B2 c2 d2 e2 f6 e2 | c4 B4 A4 z2 AG | FGAB c8 B4 | %135
 A2 GF E2 ^F2 G2 =FE D2 E2 | F8 E2 F2 E2 G2 | ^F16 || %138
[M:4/2] z[I:staff +1] A,B,C[I:staff -1] DCDE F8 | z FED CA,DC B,4 D4 | CAGF ECFE D_BGA B4 | %141
 ADFE DEFG A8 | z AcB ABcd ^cAdB cdBc | d2 FF FDFG A>_BG>A F>GE>F | D>FE>G F>AG>_B A2 AA AFAB | %145
 c>d_B>c A>BG>A F4 G4 | z2 AA AFGA _B>cA>B G>AF>G | E8 G4 E4 | z2 cc cAcd e>fd>e ^c>dB>c | %149
 d>e=c>d _B>cA>B G>AF>G E4 | D2 A2 _B2 c2 d2 A2 B2 c2 | d2 c2 _B2 A2 G2 F2 B2 AG | %152
 A>_BG>A F>GE>F D2 GF EFDE | CFED CB,CD EFGF EFDE | F2 c2 d2 c2 A4 _B2 A2 | z2 G2 A2 G2 F4 D4 | %156
 z2 A2 c2 A2 F4 D4 | z2 A2 d2 c2 _B2 A2 G2 F2 | E4 F8 E4- | E4 D8 ^C4 | D2 A2 _B2 G2 ^F2 G2 E2 F2 | %161
 G2 =F2 D2 E2 ^F8 ||[M:4/2] D4 A6 G2 F2 E2 | F3 G A2 B2 c2 d2 e2 d2 | c2 BA BAGF EAGF EAEG | %165
 ^F2 DE =FDFG A8 | A8 G2 ^F2 G3 A | _B4 A2 F4 ED EFGF | E4 z4 z8 | z16 | z16 | z16 | %172
 z8 c2 c2 c2 A2 | A8 A2 A2 A2 F2 | A4 B4 c3 A B3 G | A3 F G3 E F2 G2 A2 B2 | c8 z8 | z16 | %178
 z8 A2 A2 A2 E2 | A8 A_BAG FEFG | A4 GAFG E2 AB cBcA | _B2 GA BABG A2 FG AGAF | G8 z8 | z16 | z16 | %185
 z2 G2 A2 G2 FGAB cGAB | c8 z2 A4 A2 | GAGF EDCD EDEF GABG | AGFE FGAF GFED EFGE | ^F2 G4 F2 G8 | %190
 z16 | z16 | z16 | z16 | z4 c6 _BA B4- | B2 A2 G4 F4 E4 | D4 C4 G6 D2 | ^C2 D4 =C2 D2 G4 E2- | %198
 E2 DC D2 A2 G8 | A4 D4 D8- | D16 |] %201
V:3
 z16 | z16 | z8 z4 A,4 | D8 D4 ^C4 | D4 A,4 =C4 C4 | C4 B,4 A,6 B,2 | C6 D2 E2 C2 D4 | %7
 C2 B,2 A,2 D4 CB, A,2 B,2 | C2 D4 ^C2 D6 E2 | F4 E4 A,2 B,2 =C2 B,A, | G,4 G2 F2 E4 D4 | %11
 ^C2 D4 =C4 _B,2 A,4 | F8 F2 ED E4 | D4 F4 E8 | E8 C2 D4 ^C2 | D2 A,2 D4 D2 ^C2 D2 A,2 | %16
 =C2 C2 C2 B,2 A,2 D3 CA,B, | C4 A,4 F2 E2 F2 C2 | E6 G2 A4 A,4- | A,4 A,4 D4 C2 D2 | %20
 E6 D2 ^C4 z4 | A,4 D4 =C4 D4- | D2 CB, C6 _B,2 A,4 | _B,8 A,8 | A,6 _B,2 z2 C4 B,2 | %25
 C2 D4 ^C2 D6 C2 | D4 =C2 D2 G,4 z4 | C2 C2 C2 A,2 C4 D4 | E4 D4 C4 B,4 | A,8 E6 F2 | %30
 z2 G4 F2 G2 A4 ^G2 | A4 E4 z8 | C2 C2 C2 A,2 C2 D4 E2- | E2 D2 C2 B,2 C4 D2 C2 | %34
 B,4 G2 F2 E2 D2 C4- | C4 A,4 A,4 F,2 G,2 | A,8 D6 E2 | F6 E2 F8 | D6 _B,2 C3 D E F2 E | %39
 F2 C4 D2 C2 D4 G2- | G2 F4 E2 F8 | F12 A4 | F8 F4 C4 | z2 C2 F4 D8- | D4 F4 D8 | %45
 D4 A,4 z2 A,2 C4 | C12 E4 | C8 C4 G,4 | z2 G2 C2 F4 E2 F2 C2 | z2 E2 F2 E4 D4 ^C2 | %50
 D4 z2 G2 A2 G2 E2 C2 | z2 D2 E2 D2 C4 B,4 | A,6 E2 F2 E2 C4 | z2 E2 F2 E4 D4 ^C2 | %54
 D2 B,2 C2 B,2 C2 D2 E4 | A,4 B,6 C4 B,2 | G8 E8 | ^C4 E6 F4 E2 | C8 A,8 | %59
[I:staff +1] F,2 G,A, _B,4 A,6 C2 | _B,8 A,8 ||[M:4/2] x16 | x16 | x16 | x16 | x16 | x16 | x16 | %68
 x16 | x16 | x16 | x16 | x16 | x16 | x16 | x16 | x16 | x16 | x16 | x16 | x16 | x16 | x16 | x16 | %84
 x16 | x16 | x16 | x16 | x16 | x16 ||[M:4/2][I:staff -1] A,4 D4 D2 ^C2 D2 A,2 | %91
 =C2 C2 C2 B,2 A,6 D2- | D2 C2 _B,2 A,2 A,6 C2 | E6 D2 ^C4 D4 | ^C2 D4 C2 D4 =C2 D2 | %95
 E2 F2 D2 E2 C6 DC | _B,8 A,4 D4 | C8 C8 | C8 _B,8 | z2 A,2 =B,2 C2 D8 | C2 C2 C2 A,2 C6 D2 | %101
 D4 A,4 D6 C2 | _B,2 A,2 B,2 G,2 C8 | C4 =B,2 C2 D8- | D2 CB, C6 _B,2 A,4 | G,2 _B,2 D4 D4 C2 D2 | %106
 A,2 D2 C2 D2 A,2 D2 C2 A,2 | z2 _B,2 A,2 F,2 z2 D2 C2 A,2 | z2 G,2 D2 B,2 z2 A,2 E2 D2 | %109
 B,2 C2 D2 C2 A,2 D2 C2 D2 | F4 D4 C8 | z2 F2 G2 F2 E2 C2 F2 E2 | F2 E2 D2 ^C2 D8 | B,8 C4 F2 C2 | %114
 z2 C2 _B,C D2 A,4 D4 | ^C2 D4 C2 A,2 _B,2 A,4 |[I:staff +1] _B,12 A,2 G,2 | A,16 || %118
[M:4/2][I:staff -1] z16 | z16 | A,8 E8 | E4 D4 E8 | A,8 C4 C4 | C8 B,8 | A,8 z8 | C4 C4 C4 A,4 | %126
 C4 D4 E4 D4 | C4 B,4 A,8 | z8 C4 C4 | C4 A,4 C4 D4 | E8 D8 | C8 z8 | G8 A4 G4 | E8 C8 | D4 E8 D4 | %135
 C8 B,8 | A,16- | A,16 ||[M:4/2] x16 | x16 | x16 | x16 | x16 | x16 | x16 | x16 | x16 | x16 | x16 | %149
 x16 | x16 | x16 | x16 | x16 | x16 | x16 | x16 | x16 | x16 | x16 | x16 | x16 || %162
[M:4/2] z4 z2 A,2 D4 D2 ^C2 | D2 A,2 F2 F2 F2 ED C2 D2 | E2 F2 GFED ^C2 D4 C2 | %165
 D4 A,4 z2 A,B, CA,B,C | D2 CB, A,B,CD E2 D4 ^C2 | D2 G2 F2 ED C6 B,2 | C3 D E2 F2 G2 A2 B2 A2 | %169
 G2 FE FEDC B,EDC B,EB,D | ^C2 A,B, =CB,CD E8 | E8 D2 ^C2 D3 E | F4 E2 D2 E4 C4 | %173
 C2 C2 C2 A,2 C4 F2 D2 | C2 D4 E3 C F3 D E2- | EC D3 B, ^C2 D2 E2 F2 D2 | E8 E2 E2 E2 C2 | %177
 E4 F4 G3 E F3 D | E3 C D3 B, ^C8 | D2 D2 D2 A,2 C4 D4 | CB,CD E2 D2 C2 CD EDEC | %181
 D2 _B,C DCDE F2 A,=B, CB,CD | E8 EFED CB,CD | E4 DECD B,2 EF GFGE | F2 DE FEFD E2 G2 A2 G2 | %185
 E8 z2 F2 E4 | z2 E2 F2 E2 A,B,CD CA,DC | B,C D2 CB,A,B, CB,CD ECDE | FEDC DEFD ED^CB, C D2 C | %189
 D2 B,2 A,4 z2 D2 E2 D2 | CDEF GDEF G8 | z2 E4 E2 DEDC B,A,G,A, | B,A,B,C DEFD EDCB, CDEC | %193
 DCB,A, B,CDB, ^C2 D2 E2 D2 | C2 F4 E2 F6 GF | E2 F4 E4 D4 C2- | C2 _B,4 A,2 =B,2 C4 B,2 | %197
 A,8 B,2 C4 B,2 | A,6 D4 CB, C4- | C2 DC _B,2 CB, A,2 B,2 A,2 G,2 | A,16 |] %201
V:4
 z16 | z16 | z16 | z16 | z16 | z8 D,8 | A,8 A,4 G,4 | A,4 D,4 F,4 F,4 | F,4 E,4 D,2 E,2 F,2 G,2 | %9
 A,6 G,2 F,2 G,2 A,2 G,F, | E,2 D,2 E,2 F,2 G,2 A,4 G,2- | G,2 F,2 E,4 ^F,2 G,4 =F,G, | A,8 A,8 | %13
 A,8 A,4 E,3 ^F, | ^G,2 A,4 G,2 A,8 | A,8 z8 | z16 | z4 z2 D,2 A,8 | A,2 G,2 A,2 D,2 F,2 F,2 F,4 | %19
 E,4 D,4 F,2 G,2 A,2 B,2 | C2 B,A, B,4 A,2 G,2 F,4 | F,4 A,4 A,8 | A,6 G,2 ^F,2 G,4 F,2 | %23
 G,2 =F,E, D,2 E,2 F,2 F,2 F,2 D,2 | F,6 G,2 A,4 G,4 | F,4 E,4 D,2 F,2 G,2 A,2 | _B,4 A,2 =B,2 C8 | %27
 G,2 E,4 F,2 z2 G,4 F,2 | G,2 A,4 ^G,2 A,4 E,4 | C2 C2 C2 A,2 C6 D2 | E4 D4 C4 B,4 | %31
 A,2 A,4 ^G,2 A,8 | A,6 C2 A,4 B,4 | C2 B,2 A,8 A,4 | z4 G,6 D,2 E,4 | A,2 G,2 F,4 E,4 D,4 | %36
 z8 _B,2 B,2 B,2 G,2 | F,G,A,_B, C2 C,2 F,2 F,2 F,2 D,2 | F,4 G,4 A,4 G,4 | %39
 F,2 A,4 A,2 A,4 G,2 D2 | C4 D2 _B,2 C4 A,4 | z2 C2 D2 C2 A,4 z2 C2 | D2 C2 A,3 C D2 C2 A,4 | %43
 _B,2 A,2 D4 z2 A,2 B,2 A,2 | F,4 z2 A,2 _B,2 A,2 F,3 A, | _B,2 A,2 F,4 A,2 F,2 E,4 | %46
 z2 G,2 A,2 G,2 E,4 z2 G,2 | A,2 G,2 E,3 G, A,2 G,2 E,4 | F,2 E,2 F,2 A,2 _B,2 C2 F,4 | C8 A,8 | %50
 z2 B,2 C2 B,2 C2 B,2 G,4 | z2 B,2 C2 B,4 A,4 ^G,2 | A,4 z2 C2 D2 C2 A,2 F,2 | %53
 z2 G,2 A,2 G,2 F,4 E,4 | D,4 z2 D,2 F,2 D,4 ^C,2 | D,4 G,4 z4 D4 | E4 D4 C4 B,4 | A,4 z4 z4 G,4 | %58
 A,4 G,4 F,4 E,4 | D,4 G,6 ^F,E, F,4 | G,2 =F,E, D,2 E,2 ^F,8 ||[M:4/2] z16 | z4 D,4 A,4 A,2 ^G,2 | %63
 A,4 D,4 z2 F,F, F,2 E,2 | D,2 G,G, G,2 F,2 E,2 A,A, A,2 G,2 | F,2 _B,B, B,2 A,2 G,4 z2 F,F, | %66
 F,2 E,2 D,4 z2 C,C, C,2 B,,2 | A,,4 z2 A,,2 D,4 D,2 ^C,2 | D,4 A,,2 B,,2 C,2 C,2 C,2 B,,2 | %69
 A,,2 D,4 ^C,2 D,8 | z2 C,C, C,2 A,,2 C,2 D,2 E,4- | E,2 D,4 C,4 B,,2 A,,2 D,2- | %72
 D,2 C,2 B,,4 A,,8 | z2 G,G, G,2 E,2 G,2 A,2 B,4- | B,2 A,4 ^G,2 A,2 F,F, F,2 D,2 | %75
 F,4 G,4 A,4 G,4 | F,4 E,4 D,2 F,F, F,2 D,2 | F,2 G,2 A,4 G,4 F,2 D,2 | %78
 _B,,4 D,2 B,,2 C,2 F,4 E,2 | F,8 z2 F,2 G,2 F,2 | D,4 z2 D,2 F,2 D,2 C,4 | %81
 z2 C,2 D,2 C,2 A,,2 B,,2 C,4 | F,8 G,4 z2 G,2 | A,2 G,2 E,2 C,2 D,4 E,4 | D,4 C,4 B,,4 A,,4 | %85
 F,8 z2 C,2 D,2 C,2 | A,,2 F,,2 G,,4 A,,4 G,,4 | F,,4 E,,4 D,,2 D,2 E,2 D,2 | C,4 B,,4 A,,4 F,4 | %89
 E,8 D,8 ||[M:4/2] z8 z4 D,4 | A,4 A,2 ^G,2 A,2 D,2 F,2 F,2 | F,2 E,2 D,2 F,2 E,4 F,2 A,2 | %93
 G,8 A,2 G,2 F,2 G,2- | G,2 F,2 E,4 F,2 G,2 A,2 B,2 | C4 G,6 ^F,E, F,4 | G,8 F,4 A,4 | A,8 A,8 | %98
 G,8 G,8 | F,8 A,8 | A,6 C2 A,8 | _B,4 F,4 A,4 D,4 | D,2 C,2 D,2 E,2 F,4 C,2 D,2 | %103
 E,2 F,2 G,4 A,8 | A,6 G,2 ^F,2 G,4 F,2 | G,4 A,2 _B,2 A,2 B,2 A,2 B,2 | F,8 F,2 _B,2 A,2 F,2 | %107
 z2 G,2 F,2 D,2 z2 D,2 F,4 | z2 E,2 G,4 z2 F,2 A,2 F,2 | D,2 E,2 G,2 E,2 F,8 | %110
 A,4 _B,2 A,2 G,4 A,2 G,2 | A,8 A,8 | z2 A,2 F,G, A,2 D,2 A,2 _B,2 A,2 | %113
 z2 G,2 E,F, G,2 C,2 A,4 A,2 | E,4 D,4 z2 D,2 _B,2 A,2 | A,4 E,4 ^F,2 G,4 F,2 | %116
 G,2 D,2 G,8 ^F,2 E,2 | ^F,16 ||[M:4/2] A,8 A,8 | C4 B,4 ^C4 D4 | =C6 F,2 G,8 | G,8 G,4 A,2 G,2 | %122
 F,8 E,4 A,4 | G,8 G,4 G,A,B,G, | C8 D2 C2 B,4 | G,8 A,2 G,2 F,2 G,2 | A,6 F,2 G,4 G,4 | %127
 E,4 E,4 ^C,2 D,4 C,2 | D,2 E,2 F,2 G,2 A,8 | A,4 z4 A,2 G,2 F,4 | A,4 E,2 F,2 G,4 D,2 E,2 | %131
 F,4 C,2 D,2 E,2 F,2 G,2 A,2 | G,2 A,2 B,4 D2 C4 C2 | G,2 A,4 ^G,2 A,8 | %134
 A,2 F,2 A,4 G,2 E,F, G,2 F,2 | E,6 C,2 D,8 | D,8 ^C,2 D,4 C,2 | D,16 ||[M:4/2] D,8 A,8 | A,8 G,8 | %140
 A,8 D,8 | F,8 F,8 | F,8 E,8 | D,8 z8 | F,8 F,8 | F,8 D,8 | F,8 G,8 | A,8 G,8 | F,8 E,8 | D,8 z8 | %150
 F,8 F,8 | F,8 D,8 | F,8 G,8 | A,8 G,8 | F,8 z8 | C8 D8 | C8 A,8 | F,8 G,8 | A,8 G,8 | F,8 E,8 | %160
 D,16- | D,16 ||[M:4/2] z16 | D,8 A,8 | A,4 G,4 A,8 | D,8 F,4 F,4 | F,8 E,8 | D,4 D,4 A,4 A,2 G,2 | %168
 A,2 E,2 C2 C2 C2 B,A, G,2 A,2 | B,2 C2 DCB,A, ^G,2 A,4 G,2 | A,4 E,4 z2 E,F, G,E,F,G, | %171
 A,2 G,F, E,F,G,A, B,2 A,4 ^G,2 | A,2 D2 C2 B,2 A,8 | F,4 F,4 F,4 D,4 | F,4 G,4 A,4 G,4 | %175
 F,4 E,4 D,8 | G,2 G,2 G,2 E,2 G,4 C2 A,2 | G,2 A,4 B,3 G, C3 A, B,2- | B,G, A,3 ^F, ^G,2 A,4 E,4 | %179
 F,4 F,4 F,4 D,4 | F,4 G,4 A,8 | G,8 F,8 | C2 C2 C2 G,2 G,4 A,4 | %183
 G,F,G,A, B,2 A,2 G,2 G,A, B,A,B,G, | A,2 F,G, A,G,A,B, C8 | C8 D4 C4 | A,8 F,8 | G,4 A,8 G,4 | %188
 F,8 E,8 | D,8 B,8 | z2 C2 B,4 z2 B,2 C2 B,2 | E,F,G,A, G,E,A,G, ^F,G, A,2 G,F,E,F, | %192
 G,^F,G,A, B,G,A,B, CB,A,G, A,B,CA, | B,A,^G,^F, G, A,2 G, A,2 B,2 C2 B,2 | A,4 G,4 D8 | %195
 G,2 F,2 G,4 A,8- | A,2 _B,2 C2 F,4 E,2 D,2 G,2- | G,2 F,2 E,2 F,4 E,2 D,2 G,2 | A,8 B,4 A,2 G,2 | %199
 ^F,4 G,4 F,2 G,2 F,2 E,2 | ^F,16 |] %201
V:5
 z16 | z16 | z16 | z16 | z16 | z16 | z16 | z16 | z4 A,,4 D,8 | D,4 ^C,4 D,4 A,,4 | %10
 =C,4 C,4 C,4 B,,4 | A,,8 D,8 | D,2 E,2 F,2 G,2 A,6 G,2 | F,2 D,3 E,F,G, A,2 A,,3 B,,C,D, | %14
 E,8 F,3 =G, A,4 | D,8 z8 | z16 | z2 A,,2 D,4 D,2 ^C,2 D,2 A,,2 | %18
 =C,2 C,2 C,2 B,,2 A,,2 D,3 C,A,,B,, | C,4 D,6 E,2 F,4 | E,8 A,,4 _B,,2 C,2 | %21
 D,4 D,,2 E,,2 F,,2 E,,2 F,,2 G,,2 | A,,8 D,,8 | G,,2 A,,2 _B,,2 C,2 D,8 | z16 | z16 | %26
 z8 C,2 C,2 C,2 A,,2 | C,6 D,2 E,4 D,4 | C,4 B,,4 A,,2 A,,4 ^G,,2 | A,,8 z8 | z16 | %31
 z8 F,2 F,2 F,2 D,2 | F,12 G,4 | A,6 G,2 F,2 E,2 D,4 | G,2 F,2 E,2 D,2 C,2 B,,2 A,,4 | %35
 A,,8 A,,4 D,4 | D,8 z8 | z16 | _B,,2 B,,2 B,,2 G,,2 F,,G,,A,,B,, C,B,, C,2 | %39
 F,2 F,2 F,2 D,2 F,4 G,4 | A,4 G,4 F,8 | F,8 F,8 | F,8 F,4 z2 F,2 | G,2 F,2 D,4- D,8 | D,8 D,8 | %45
 D,4 z2 D,2 F,2 D,2 C,4- | C,8 C,8 | C,8 C,4 z2 C,2 | D,2 C,2 A,,2 F,,2 z8 | z16 | %50
 z2 G,2 A,2 G,2 F,2 G,2 C,4 | G,8 E,8 | A,,2 C,2 D,2 C,2 _B,,2 C,2 F,,4 | C,8 A,,8 | %54
 D,2 G,,2 A,,2 G,,2 F,,4 E,,4 | D,,4 z4 G,8 | E,8 E,8 | A,,4 C,4- C,8 | A,,8 A,,8 | _B,,6 C,2 D,8 | %60
 G,,8 D,8 ||[M:4/2] x16 | x16 | x16 | x16 | x16 | x16 | x16 | x16 | x16 | x16 | x16 | x16 | x16 | %74
 x16 | x16 | x16 | x16 | x16 | x16 | x16 | x16 | x16 | x16 | x16 | x16 | x16 | x16 | x16 | x16 || %90
[M:4/2] z16 | z16 | A,,4 D,4 D,2 ^C,2 D,2 A,,2 | =C,2 C,2 C,2 B,,2 A,,4 _B,,4 | A,,8 D,2 E,2 F,4 | %95
 C,4 B,,4 A,,8 | G,,2 A,,2 _B,,2 C,2 D,2 D,,4 E,,2 | F,,2 E,,2 F,,2 G,,2 A,,2 G,,2 A,,2 B,,2 | %98
 C,2 D,2 E,2 F,2 G,2 G,,2 _B,,2 C,2 | D,8 D,2 C,2 D,2 E,2 | F,8 F,2 F,2 F,2 D,2 | %101
 _B,,2 C,2 D,6 C,2 B,,2 A,,2 | G,,8 F,,2 G,,2 A,,2 B,,2 | C,2 D,2 E,4 D,2 D,,2 F,,2 G,,2 | %104
 A,,8 D,8 | z2 G,2 ^F,2 G,2 D,4 z4 | z2 _B,,2 A,,2 B,,2 F,,2 z2 z4 | z8 z2 _B,,2 A,,2 F,,2 | %108
 z2 C,2 B,,2 G,,2 z2 D,2 ^C,2 D,2 | G,,2 =C,2 B,,2 C,2 F,,2 _B,,2 A,,2 B,,2 | %110
 F,,2 F,2 G,2 F,2 E,2 C,2 F,2 E,2 | D,8 A,,8 | z8 z2 D,2 _B,,C, D,2 | G,,8 F,,2 F,2 D,E, F,2 | %114
 C,4 G,,2 _B,,2 z2 D,2 B,,C, D,2 | A,,8 D,8 | G,,8 D,8- | D,16 ||[M:4/2] D,8 A,8 | %119
 A,4 G,4 A,4 D,4 | z2 F,2 E,2 D,2 C,2 B,,2 C,2 D,2 | E,2 F,2 G,2 F,2 E,2 D,2 ^C,4 | %122
 D,2 D,,2 F,,2 G,,2 A,,2 B,,2 C,2 D,2 | E,2 C,2 E,2 F,2 G,2 F,2 E,4 | A,2 G,2 F,2 E,2 D,4 G,2 F,2 | %125
 E,2 D,2 C,2 B,,2 A,,4 D,4 | z4 D,4 C,D,E,F, G,2 G,,2 | A,,B,,C,D, E,2 E,,2 A,,8 | %128
 _B,,2 C,2 D,2 E,2 F,2 E,2 F,2 G,2 | A,2 G,2 F,4 F,2 E,2 D,4 | A,,2 B,,2 C,4 G,,2 A,,2 _B,,4 | %131
 F,,2 G,,2 A,,2 =B,,2 C,2 D,2 E,2 F,2 | G,8 D,2 F,2 C,4 | C,4 E,4 A,,2 A,=G, F,2 E,2 | %134
 D,4 A,,2 B,,2 C,4 G,,4 | A,,2 B,,2 C,2 A,,2 G,,2 A,,2 B,,2 C,2 | D,2 D,,2 F,,2 G,,2 A,,8 | %137
 D,,16 ||[M:4/2] z8 z A,,B,,C, D,C,D,E, | F,8 G,E,D,C, B,,G,,C,B,, | A,,8 _B,,4 z G,,B,,C, | %141
 D,8 z D,,F,,E,, D,,E,,F,,G,, | A,,8 A,,2 G,,2 A,,4 | D,,4 D,2 E,2 F,2 E,2 D,2 C,2 | %144
 _B,,2 C,2 D,2 E,2 F,4 F,,4 | A,,8 z2 _B,,B,, B,,G,,B,,C, | D,8 z8 | %147
 z2 C,C, C,A,,C,D, E,>F,D,>E, C,>D,B,,>C, | A,,8 A,,8 | _B,,2 A,,2 G,,2 F,,2 E,,2 D,4 ^C,2 | %150
 D,6 A,,2 _B,,2 C,2 D,2 A,,2 | _B,,2 C,2 D,2 C,2 B,,2 A,,2 G,,2 F,,E,, | D,,4 D,2 C,2 B,,4 C,4 | %153
 F,2 F,,2 A,,2 B,,2 C,2 _B,,2 C,4 | F,,8 z2 F,2 G,2 F,2 | E,4 C,4 z2 _B,,2 D,2 B,,2 | %156
 A,,4 F,,4 z2 D,2 F,2 E,2 | D,4 _B,,2 A,,2 G,,4 E,2 D,2 | C,2 A,,2 D,2 C,2 B,,2 G,,2 C,2 B,,2 | %159
 A,,2 F,,2 _B,,2 A,,2 G,,2 E,,2 A,,2 G,,2 | ^F,,4 G,,4 D,,8 | G,,8 D,,8 ||[M:4/2] z16 | z16 | z16 | %165
 z16 | z16 | z16 | A,,8 E,8 | E,4 D,4 E,8 | A,,8 C,4 C,4 | C,8 B,,8 | A,,8 z8 | z16 | z16 | z16 | %176
 C,4 C,4 C,4 A,,4 | C,4 D,4 E,4 D,4 | C,4 B,,4 A,,8 | z16 | z16 | z16 | C,4 C,4 C,4 A,,4 | %183
 C,4 D,4 E,8 | D,8 C,8 | z16 | z16 | z16 | z16 | z8 G,8 | A,4 G,4 E,8 | C,8 D,4 E,4- | %192
 E,4 D,4 C,8 | B,,8 A,,8 | z4 C,4 D,8 | C,8 A,,8 | F,,8 G,,8 | A,,8 G,,8 | F,,8 E,,8 | D,,16- | %200
 D,,16 |] %201

